X:41
T:Judith's Waltz
R:waltz
C:Jody Kruszkal
H:I learned it from Tim Bull, who learned it directly from Jody.
N:It's been a favourite waltz with Florida for years
M:3/4
L:1/4
K:C
(3G/2c/2d/2 | e g G | A A/2c/2B/2A/2 | G2 D | E2 (3G/2c/2d/2 |
e g G | A f/2g/2 f/2e/2 | d d/2c/2 B/2A/2 | G2 (3G/2c/2d/2 |
e g G | A A/2c/2B/2A/2 | G G D | E F G | A f/2g/2f/2e/2 | d d/2c/2B/2A/2 |
G G/2F/2E/2D/2 | C2 D | E/2C/2D/2E/2F | G A B |
c/2G/2A/2B/2c/2 | d2 c/2d/2 | e g G | A f/2g/2f/2e/2 |
d d/2c/2B/2A/2 | G G/2F/2E/2D/2 | E/2C/2D/2E/2F | G A B |
c/2G/2A/2B/2 c | d d c/2d/2 | e g G | A f/2g/2 f/2e/2 | d d/2c/2B/2d/2 | c2 |]

